X:5961
T:Gan Ainm
R:strathspey
S:Tommy Peoples & Dermot Byrnes
H:
N:
D:Concert, Galway 
Z:Adrian Scahill
M:4/4
L:1/8
K:G
GG,B,G, (3B,CD G2|EA,FA, GA,EA|GG,B,G, (3B,CD G2|(3FGA (3DEF (3GDC (3B,A,G,|\
GG,B,G, (3B,CD G2|EA,FA, GA,EA|GG,B,G, (3B,CD G2|(3FGA (3DEF G3c||\
B<G Bd gdBd|(3cdc (3BcB ABcd|B<G Bd gdBG|(3FGA (3DEF G3c|\
B<G Bd gdBd|(3cdc (3BcB ABce|(3dcB (3ABc (3BAG (3FGA|(3GFE (3DEF (GDC (B,A,G,||\


